X: 2083
Q: "Reel."
M: C
L: 1/8
K: C
uA |\
c2{d}cA cGGA | cdcA G2(Gc) |\
{B}c2(cA) cGGA | cd{d}cA {^F}GAcG |\
{B}c2ge {B}c2ge | {B}cdcA {^F}GAcG |\
cgeg cgeg | cd{d}cA {^F}GAcG |\


